!!!OTL: 218. Khosid
!!!Genre:	Khosid
!!!Mode:	Minor
!!!Listening/dance:	dance
!!!One_Mode:	yes
**kern
*I"P1
*clefG2
*k[b-e-]
*g:
*M2/4
*>A
!LO:TX:a:i:t=G-minor
=1
16gLL
16g
16g
16gJJ
8ccL
8b-J
=2
(32gLLL
32ccJJ)
8.b-J
(8qcc/
16b-LL)
16aJ
8gJ
=3
8ccL
16ddL
16ee-JJ
8ddL
8ccJ
=4
(8qcc/
16b-LL)
16a
16g
16aJJ
4b-
=5
16gLL
16g
16g
16gJJ
(32gLLL
32ccJJ
8.b-J)
=6
(32gLLL
32ccJJ
8.b-J)
(8qcc/
16b-LL)
16aJ
8gJ
=7
8ccL
16ddL
16ee-JJ
8ddL
8ccJ
=8
16b-LL
16cc
16a
16b-JJ
4g
=9:|!
*>bM
*B-:
*>B
!LO:TX:a:i:t=Bb-major
8ccL
16ddL
16ee-JJ
(8ddtL
8gJ)
=10
8ccL
16ddL
16ee-JJ
(8ddtL
8gJ)
=11
16ccLL
16cc
16cc
16ccJJ
(8qcc/
8ffL)
8ee-J
=12
8ddL
8ccJ
8.b-TL
16gJk
=13
8ccL
16ddL
16ee-JJ
8ddL
8ggJ
=14
8ccL
16ddL
16ee-JJ
16ddLL
16ddJ
8ggJ
=15
16ccLL
16cc
16cc
16ccJJ
(8qcc/
8ffL)
8ee-J
=16
8ddL
8ccJ
4b-
*>eM
==
*-
